build/img/dribbble.svg

<svg xmlns="http://www.w3.org/2000/svg" viewBox="0 0 112.196 112.196"><circle cx="56.098" cy="56.098" r="56.098" fill="#f26798"/><path d="M56.097 20.472c-19.669 0-35.671 15.983-35.671 35.627 0 19.644 16.002 35.626 35.671 35.626 19.67 0 35.673-15.981 35.673-35.626 0-19.644-16.003-35.627-35.673-35.627zM79.57 37.287a29.915 29.915 0 0 1 6.656 18.352c-1.354-.278-7.088-1.347-13.94-1.347-2.211 0-4.538.111-6.871.399a93.524 93.524 0 0 0-2.533-5.664c10.546-4.345 15.633-10.375 16.688-11.74zM56.097 26.049c7.601 0 14.549 2.824 19.856 7.475-.84 1.146-5.396 6.841-15.565 10.683-4.707-8.604-9.859-15.729-11.085-17.383a30.083 30.083 0 0 1 6.794-.775zm-12.945 2.92c1.039 1.431 6.199 8.632 11.027 17.167-12.957 3.406-24.463 3.628-27.24 3.628h-.295c1.995-9.194 8.207-16.834 16.508-20.795zM25.96 56.146c0-.248.004-.496.012-.743.18.002.446.002.791.002 3.74 0 16.722-.309 30.1-4.279a101.12 101.12 0 0 1 2.304 4.811c-.338.097-.671.194-1.002.302-15.063 4.865-23.342 17.744-24.616 19.849-4.72-5.318-7.589-12.3-7.589-19.942zm30.137 30.095a30.012 30.012 0 0 1-18.381-6.266c.861-1.688 7.11-12.939 23.617-18.684a.255.255 0 0 1 .033-.011c4.139 10.776 5.892 19.82 6.373 22.623a29.97 29.97 0 0 1-11.642 2.338zm17.07-5.305c-.404-2.319-2.028-10.795-5.776-21.133a39.518 39.518 0 0 1 6.065-.456c6.299 0 11.226 1.379 12.371 1.729-1.361 8.209-6.061 15.313-12.66 19.86z" fill="#f1f2f2"/></svg>

<?xml version="1.0" encoding="iso-8859-1"?>
<!-- Generator: Adobe Illustrator 18.0.0, SVG Export Plug-In . SVG Version: 6.00 Build 0)  -->
<!DOCTYPE svg PUBLIC "-//W3C//DTD SVG 1.1//EN" "http://www.w3.org/Graphics/SVG/1.1/DTD/svg11.dtd">
<svg version="1.1" id="Capa_1" xmlns="http://www.w3.org/2000/svg" xmlns:xlink="http://www.w3.org/1999/xlink" x="0px" y="0px"
	 viewBox="0 0 112.196 112.196" style="enable-background:new 0 0 112.196 112.196;" xml:space="preserve">
<g>
	<circle style="fill:#F26798;" cx="56.098" cy="56.098" r="56.098"/>
	<g>
		<path style="fill:#F1F2F2;" d="M56.097,20.472c-19.669,0-35.671,15.983-35.671,35.627c0,19.644,16.002,35.626,35.671,35.626
			c19.67,0,35.673-15.981,35.673-35.626C91.77,36.455,75.767,20.472,56.097,20.472L56.097,20.472z M79.57,37.287
			c4.069,5.043,6.542,11.412,6.656,18.352c-1.354-0.278-7.088-1.347-13.94-1.347c-2.211,0-4.538,0.111-6.871,0.399
			c-0.197-0.479-0.394-0.956-0.601-1.438c-0.605-1.423-1.257-2.835-1.932-4.226C73.428,44.682,78.515,38.652,79.57,37.287
			L79.57,37.287z M56.097,26.049c7.601,0,14.549,2.824,19.856,7.475c-0.84,1.146-5.396,6.841-15.565,10.683
			c-4.707-8.604-9.859-15.729-11.085-17.383C51.488,26.318,53.762,26.049,56.097,26.049L56.097,26.049z M43.152,28.969
			c1.039,1.431,6.199,8.632,11.027,17.167c-12.957,3.406-24.463,3.628-27.24,3.628h-0.295C28.639,40.57,34.851,32.93,43.152,28.969
			L43.152,28.969z M25.96,56.146c0-0.248,0.004-0.496,0.012-0.743c0.18,0.002,0.446,0.002,0.791,0.002
			c3.74,0,16.722-0.309,30.1-4.279c0.812,1.588,1.585,3.2,2.304,4.811c-0.338,0.097-0.671,0.194-1.002,0.302
			c-15.063,4.865-23.342,17.744-24.616,19.849C28.829,70.77,25.96,63.788,25.96,56.146L25.96,56.146z M56.097,86.241
			c-6.912,0-13.291-2.341-18.381-6.266c0.861-1.688,7.11-12.939,23.617-18.684c0.01-0.004,0.021-0.008,0.033-0.011
			c4.139,10.776,5.892,19.82,6.373,22.623C64.157,85.409,60.223,86.241,56.097,86.241L56.097,86.241z M73.167,80.936
			c-0.404-2.319-2.028-10.795-5.776-21.133c2.102-0.327,4.147-0.456,6.065-0.456c6.299,0,11.226,1.379,12.371,1.729
			C84.466,69.285,79.766,76.389,73.167,80.936L73.167,80.936z"/>
	</g>
</g>
<g>
</g>
<g>
</g>
<g>
</g>
<g>
</g>
<g>
</g>
<g>
</g>
<g>
</g>
<g>
</g>
<g>
</g>
<g>
</g>
<g>
</g>
<g>
</g>
<g>
</g>
<g>
</g>
<g>
</g>
</svg>
